flowes_shop/src/assets/image/FLowerLogo.svg

<svg width="106" height="23" viewBox="0 0 106 23" fill="none" xmlns="http://www.w3.org/2000/svg">
<path d="M0.62207 0.452148H11.418V2.57617H2.76074V9.31445H11.418V11.4385H2.76074V22H0.62207V0.452148ZM15.1826 0.452148H17.3506V19.9199H25.627V22H15.1826V0.452148ZM36.2471 5.65234C38.6982 5.65234 40.7295 6.54102 42.3408 8.31836C43.8057 9.93945 44.5381 11.8584 44.5381 14.0752C44.5381 16.3018 43.7617 18.25 42.209 19.9199C40.666 21.5801 38.6787 22.4102 36.2471 22.4102C33.8057 22.4102 31.8086 21.5801 30.2559 19.9199C28.7129 18.25 27.9414 16.3018 27.9414 14.0752C27.9414 11.8682 28.6738 9.9541 30.1387 8.33301C31.75 6.5459 33.7861 5.65234 36.2471 5.65234ZM36.2471 7.65918C34.5479 7.65918 33.0879 8.28906 31.8672 9.54883C30.6465 10.8086 30.0361 12.332 30.0361 14.1191C30.0361 15.2715 30.3145 16.3457 30.8711 17.3418C31.4277 18.3379 32.1797 19.1094 33.127 19.6562C34.0742 20.1934 35.1143 20.4619 36.2471 20.4619C37.3799 20.4619 38.4199 20.1934 39.3672 19.6562C40.3145 19.1094 41.0664 18.3379 41.623 17.3418C42.1797 16.3457 42.458 15.2715 42.458 14.1191C42.458 12.332 41.8428 10.8086 40.6123 9.54883C39.3916 8.28906 37.9365 7.65918 36.2471 7.65918ZM46.208 6.0625H48.3174L53.1953 17.6348L58.3076 6.0625H58.6738L63.7715 17.6348L68.7373 6.0625H70.876L63.9619 22H63.5664L58.498 10.5889L53.3857 22H53.0049L46.208 6.0625ZM86.7109 16.7119L88.4395 17.6201C87.873 18.7334 87.2188 19.6318 86.4766 20.3154C85.7344 20.999 84.8994 21.5215 83.9717 21.8828C83.0439 22.2344 81.9941 22.4102 80.8223 22.4102C78.2246 22.4102 76.1934 21.5605 74.7285 19.8613C73.2637 18.1523 72.5312 16.2236 72.5312 14.0752C72.5312 12.0537 73.1514 10.252 74.3916 8.66992C75.9639 6.6582 78.0684 5.65234 80.7051 5.65234C83.4199 5.65234 85.5879 6.68262 87.209 8.74316C88.3613 10.1982 88.9473 12.0146 88.9668 14.1924H74.6406C74.6797 16.0479 75.2705 17.5713 76.4131 18.7627C77.5557 19.9443 78.9668 20.5352 80.6465 20.5352C81.457 20.5352 82.2432 20.3936 83.0049 20.1104C83.7764 19.8271 84.4307 19.4512 84.9678 18.9824C85.5049 18.5137 86.0859 17.7568 86.7109 16.7119ZM86.7109 12.4199C86.4375 11.3262 86.0371 10.4521 85.5098 9.79785C84.9922 9.14355 84.3037 8.61621 83.4443 8.21582C82.585 7.81543 81.6816 7.61523 80.7344 7.61523C79.1719 7.61523 77.8291 8.11816 76.7061 9.12402C75.8857 9.85645 75.2656 10.9551 74.8457 12.4199H86.7109ZM92.0283 6.0625H94.123V8.3916C94.748 7.47363 95.4072 6.79004 96.1006 6.34082C96.7939 5.88184 97.5166 5.65234 98.2686 5.65234C98.835 5.65234 99.4404 5.83301 100.085 6.19434L99.0156 7.92285C98.5859 7.7373 98.2246 7.64453 97.9316 7.64453C97.248 7.64453 96.5889 7.92773 95.9541 8.49414C95.3193 9.05078 94.8359 9.91992 94.5039 11.1016C94.25 12.0098 94.123 13.8457 94.123 16.6094V22H92.0283V6.0625ZM104.084 18.7773C104.582 18.7773 105.007 18.9531 105.358 19.3047C105.71 19.6562 105.886 20.0859 105.886 20.5938C105.886 21.0918 105.71 21.5215 105.358 21.8828C105.007 22.2344 104.582 22.4102 104.084 22.4102C103.586 22.4102 103.161 22.2344 102.81 21.8828C102.458 21.5215 102.282 21.0918 102.282 20.5938C102.282 20.0859 102.458 19.6562 102.81 19.3047C103.161 18.9531 103.586 18.7773 104.084 18.7773Z" fill="white"/>
</svg>

<svg width="106" height="23" fill="none" xmlns="http://www.w3.org/2000/svg"><path d="M.622.452h10.796v2.124H2.761v6.738h8.657v2.124H2.761V22H.622V.452Zm14.56 0h2.169V19.92h8.276V22H15.183V.452Zm21.065 5.2c2.451 0 4.483.889 6.094 2.666 1.465 1.621 2.197 3.54 2.197 5.757 0 2.227-.776 4.175-2.329 5.845-1.543 1.66-3.53 2.49-5.962 2.49-2.441 0-4.438-.83-5.991-2.49-1.543-1.67-2.315-3.618-2.315-5.845 0-2.207.733-4.12 2.198-5.742 1.611-1.787 3.647-2.68 6.108-2.68Zm0 2.007c-1.7 0-3.16.63-4.38 1.89-1.22 1.26-1.83 2.783-1.83 4.57a6.5 6.5 0 0 0 .834 3.223c.557.996 1.309 1.767 2.256 2.314a6.215 6.215 0 0 0 3.12.806 6.216 6.216 0 0 0 3.12-.806c.948-.547 1.7-1.318 2.256-2.314.557-.996.835-2.07.835-3.223 0-1.787-.615-3.31-1.846-4.57-1.22-1.26-2.675-1.89-4.365-1.89Zm9.961-1.596h2.11l4.877 11.572 5.113-11.573h.366l5.098 11.573 4.965-11.573h2.139L63.962 22h-.396l-5.068-11.411L53.386 22h-.381L46.208 6.062Zm40.503 10.649 1.728.908c-.566 1.113-1.22 2.012-1.962 2.695a7.901 7.901 0 0 1-2.505 1.568c-.928.351-1.978.527-3.15.527-2.597 0-4.629-.85-6.094-2.549-1.464-1.709-2.197-3.637-2.197-5.786 0-2.021.62-3.823 1.86-5.405 1.573-2.012 3.677-3.018 6.314-3.018 2.715 0 4.883 1.03 6.504 3.091 1.152 1.455 1.738 3.272 1.758 5.45H74.64c.039 1.855.63 3.378 1.772 4.57 1.143 1.181 2.554 1.772 4.234 1.772.81 0 1.596-.141 2.358-.425.771-.283 1.426-.659 1.963-1.128.537-.468 1.118-1.225 1.743-2.27Zm0-4.292c-.273-1.094-.674-1.968-1.201-2.622-.518-.654-1.206-1.182-2.066-1.582-.859-.4-1.762-.6-2.71-.6-1.562 0-2.905.502-4.028 1.508-.82.732-1.44 1.831-1.86 3.296H86.71Zm5.317-6.357h2.095v2.329c.625-.918 1.284-1.602 1.978-2.051.693-.46 1.416-.689 2.168-.689.566 0 1.171.181 1.816.542l-1.07 1.729c-.43-.186-.79-.278-1.083-.278-.684 0-1.343.283-1.978.85-.635.556-1.118 1.425-1.45 2.607-.254.908-.381 2.744-.381 5.507V22h-2.095V6.062Zm12.056 12.714c.498 0 .923.176 1.274.528.352.351.528.78.528 1.289 0 .498-.176.927-.528 1.289a1.734 1.734 0 0 1-1.274.527c-.498 0-.923-.176-1.274-.527a1.784 1.784 0 0 1-.528-1.29c0-.507.176-.937.528-1.288a1.734 1.734 0 0 1 1.274-.528Z" fill="#fff"/></svg>
